svg/map/rest_area_fill.svg

<?xml version="1.0" encoding="UTF-8"?>
<svg width="24px" height="24px" viewBox="0 0 24 24" version="1.1" xmlns="http://www.w3.org/2000/svg" xmlns:xlink="http://www.w3.org/1999/xlink">
    <title>rest_area_fill</title>
    <g id="页面-1" stroke="none" stroke-width="1" fill="none" fill-rule="evenodd">
        <g id="Map" transform="translate(-192.000000, -144.000000)" fill-rule="nonzero">
            <g id="rest_area_fill" transform="translate(192.000000, 144.000000)">
                 <path d="M24,0 L24,24 L0,24 L0,0 L24,0 Z M12.5934901,23.257841 L12.5819402,23.2595131 L12.5108777,23.2950439 L12.4918791,23.2987469 L12.4918791,23.2987469 L12.4767152,23.2950439 L12.4056548,23.2595131 C12.3958229,23.2563662 12.3870493,23.2590235 12.3821421,23.2649074 L12.3780323,23.275831 L12.360941,23.7031097 L12.3658947,23.7234994 L12.3769048,23.7357139 L12.4804777,23.8096931 L12.4953491,23.8136134 L12.4953491,23.8136134 L12.5071152,23.8096931 L12.6106902,23.7357139 L12.6232938,23.7196733 L12.6232938,23.7196733 L12.6266527,23.7031097 L12.609561,23.275831 C12.6075724,23.2657013 12.6010112,23.2592993 12.5934901,23.257841 L12.5934901,23.257841 Z M12.8583906,23.1452862 L12.8445485,23.1473072 L12.6598443,23.2396597 L12.6498822,23.2499052 L12.6498822,23.2499052 L12.6471943,23.2611114 L12.6650943,23.6906389 L12.6699349,23.7034178 L12.6699349,23.7034178 L12.678386,23.7104931 L12.8793402,23.8032389 C12.8914285,23.8068999 12.9022333,23.8029875 12.9078286,23.7952264 L12.9118235,23.7811639 L12.8776777,23.1665331 C12.8752882,23.1545897 12.8674102,23.1470016 12.8583906,23.1452862 L12.8583906,23.1452862 Z M12.1430473,23.1473072 C12.1332178,23.1423925 12.1221763,23.1452606 12.1156365,23.1525954 L12.1099173,23.1665331 L12.0757714,23.7811639 C12.0751323,23.7926639 12.0828099,23.8018602 12.0926481,23.8045676 L12.108256,23.8032389 L12.3092106,23.7104931 L12.3186497,23.7024347 L12.3186497,23.7024347 L12.3225043,23.6906389 L12.340401,23.2611114 L12.337245,23.2485176 L12.337245,23.2485176 L12.3277531,23.2396597 L12.1430473,23.1473072 Z" id="MingCute" fill-rule="nonzero"></path>
                <path d="M8.0001,2 C6.34325,2 5.0001,3.34315 5.0001,5 C5.0001,6.65685 6.34325,8 8.0001,8 C9.65695,8 11.0001,6.65685 11.0001,5 C11.0001,3.34315 9.65695,2 8.0001,2 Z M16.0001,2 C14.3432,2 13.0001,3.34315 13.0001,5 C13.0001,6.65685 14.3432,8 16.0001,8 C17.657,8 19.0001,6.65685 19.0001,5 C19.0001,3.34315 17.657,2 16.0001,2 Z M4.10335,11.1811 C3.99687,10.0098 4.91907,9 6.09513,9 L9.90507,9 C11.0811,9 12.0033,10.0098 11.8969,11.1811 L10.996,21.0905 C10.9492,21.6056 10.5173,22 10.0001,22 L6.0001,22 C5.4829,22 5.05103,21.6056 5.00421,21.0905 L4.10335,11.1811 Z M14.8199,9 C13.8665,9 13.0457,9.67292 12.8587,10.6078 L12.0195,14.8039 C11.9608,15.0977 12.0368,15.4023 12.2268,15.634 C12.4167,15.8657 12.7005,16 13.0000949,16 L13.0000949,21 C13.0000949,21.5523 13.4478,22 14.0000949,22 L18.0000949,22 C18.5524,22 19.0000949,21.5523 19.0000949,21 L19.0000949,16 C19.2997,16 19.5835,15.8657 19.7734,15.634 C19.9634,15.4023 20.0394,15.0977 19.9807,14.8039 L19.1415,10.6078 C18.9545,9.67292 18.1337,9 17.1803,9 L14.8199,9 Z" id="形状" fill="#09244B"></path>
            </g>
        </g>
    </g>
</svg>

<svg xmlns="http://www.w3.org/2000/svg" width="24" height="24"><g fill="none" fill-rule="nonzero"><path d="M24 0v24H0V0h24ZM12.593 23.258l-.011.002-.071.035-.02.004-.014-.004-.071-.035c-.01-.004-.019-.001-.024.005l-.004.01-.017.428.005.02.01.013.104.074.015.004.012-.004.104-.074.012-.016.004-.017-.017-.427c-.002-.01-.009-.017-.017-.018Zm.265-.113-.013.002-.185.093-.01.01-.003.011.018.43.005.012.008.007.201.093c.012.004.023 0 .029-.008l.004-.014-.034-.614c-.003-.012-.01-.02-.02-.022Zm-.715.002a.023.023 0 0 0-.027.006l-.006.014-.034.614c0 .012.007.02.017.024l.015-.002.201-.093.01-.008.004-.011.017-.43-.003-.012-.01-.01-.184-.092Z"/><path fill="#09244B" d="M8 2a3 3 0 1 0 0 6 3 3 0 0 0 0-6Zm8 0a3 3 0 1 0 0 6 3 3 0 0 0 0-6ZM4.103 11.181A2 2 0 0 1 6.095 9h3.81a2 2 0 0 1 1.992 2.181l-.901 9.91A1 1 0 0 1 10 22H6a1 1 0 0 1-.996-.91l-.9-9.909ZM14.82 9a2 2 0 0 0-1.961 1.608l-.84 4.196A1 1 0 0 0 13 16v5a1 1 0 0 0 1 1h4a1 1 0 0 0 1-1v-5a1 1 0 0 0 .98-1.196l-.838-4.196A2 2 0 0 0 17.18 9h-2.36Z"/></g></svg>
